ui/StatusQ/src/assets/img/icons/warning.svg

<svg fill="none" height="24" viewBox="0 0 24 24" width="24" xmlns="http://www.w3.org/2000/svg"><path clip-rule="evenodd" d="m12 3.75c-4.55635 0-8.25 3.69365-8.25 8.25 0 4.5563 3.69365 8.25 8.25 8.25 4.5563 0 8.25-3.6937 8.25-8.25 0-4.55635-3.6937-8.25-8.25-8.25zm-9.75 8.25c0-5.38478 4.36522-9.75 9.75-9.75 5.3848 0 9.75 4.36522 9.75 9.75 0 5.3848-4.3652 9.75-9.75 9.75-5.38478 0-9.75-4.3652-9.75-9.75zm9.75-5.75c.4142 0 .75.33579.75.75v6c0 .4142-.3358.75-.75.75s-.75-.3358-.75-.75v-6c0-.41421.3358-.75.75-.75zm1 10.75c0 .5523-.4477 1-1 1s-1-.4477-1-1 .4477-1 1-1 1 .4477 1 1z" fill="#0d1625" fill-rule="evenodd"/></svg>

<svg width="24" height="24" viewBox="0 0 24 24" fill="none" xmlns="http://www.w3.org/2000/svg">
<path fill-rule="evenodd" clip-rule="evenodd" d="M12 3.75C7.44365 3.75 3.75 7.44365 3.75 12C3.75 16.5563 7.44365 20.25 12 20.25C16.5563 20.25 20.25 16.5563 20.25 12C20.25 7.44365 16.5563 3.75 12 3.75ZM2.25 12C2.25 6.61522 6.61522 2.25 12 2.25C17.3848 2.25 21.75 6.61522 21.75 12C21.75 17.3848 17.3848 21.75 12 21.75C6.61522 21.75 2.25 17.3848 2.25 12ZM12 6.25C12.4142 6.25 12.75 6.58579 12.75 7V13C12.75 13.4142 12.4142 13.75 12 13.75C11.5858 13.75 11.25 13.4142 11.25 13V7C11.25 6.58579 11.5858 6.25 12 6.25ZM13 17C13 17.5523 12.5523 18 12 18C11.4477 18 11 17.5523 11 17C11 16.4477 11.4477 16 12 16C12.5523 16 13 16.4477 13 17Z" fill="#0D1625"/>
</svg>
